X:340
T:Maids of Arrochar
B:Gow Collection
Z:Nigel Gatherer
L:1/8
M:6/8
K:D
D/E/|F>ED F>ED|FAA A2 d/e/|f>ed f>ed|e2 d B2 d|
F>ED F>ED|FAA A2 d/e/|fdA BFA|E2 D D2:|
A/G/|FAB FAB|d>e/f/e/ dBA|FAB FAf|e2 d B2 A|
dfa fdA|B/A/B/c/d/B/ AFD|FdA BFA|E2 D D2:|]
<end>
<start>
